src/icons/file-js.svg

<?xml version="1.0" encoding="UTF-8" standalone="no"?>
<svg
   version="1.2"
   viewBox="0 0 16 16"
   width="16"
   height="16"
   id="svg1"
   sodipodi:docname="square-svg(7).svg"
   inkscape:version="1.4 (e7c3feb100, 2024-10-09)"
   xmlns:inkscape="http://www.inkscape.org/namespaces/inkscape"
   xmlns:sodipodi="http://sodipodi.sourceforge.net/DTD/sodipodi-0.dtd"
   xmlns="http://www.w3.org/2000/svg"
   xmlns:svg="http://www.w3.org/2000/svg">
  <defs
     id="defs1" />
  <sodipodi:namedview
     id="namedview1"
     pagecolor="#505050"
     bordercolor="#eeeeee"
     borderopacity="1"
     inkscape:showpageshadow="0"
     inkscape:pageopacity="0"
     inkscape:pagecheckerboard="0"
     inkscape:deskcolor="#505050"
     inkscape:zoom="36.8125"
     inkscape:cx="8.0135823"
     inkscape:cy="8.0135823"
     inkscape:window-width="1326"
     inkscape:window-height="755"
     inkscape:window-x="20"
     inkscape:window-y="52"
     inkscape:window-maximized="0"
     inkscape:current-layer="svg1" />
  <title
     id="title1">square-svg</title>
  <style
     id="style1">
		.s0 { fill: #f5aa52 } 
		.s1 { fill: #000000 } 
	</style>
  <g
     id="Layer 1">
    <path
       id="path1"
       class="s0"
       d="M 6 2 C 4.6 2 3.9003906 2.0007813 3.4003906 2.3007812 C 2.9003906 2.5007812 2.5007813 2.9003906 2.3007812 3.4003906 C 2.0007813 3.9003906 2 4.6 2 6 L 2 10 C 2 11.4 2.0007813 12.099609 2.3007812 12.599609 C 2.5007812 13.099609 2.9003906 13.499219 3.4003906 13.699219 C 3.9003906 13.999219 4.6 14 6 14 L 10 14 C 11.4 14 12.099609 13.999219 12.599609 13.699219 C 13.099609 13.499219 13.499219 13.099609 13.699219 12.599609 C 13.999219 12.099609 14 11.4 14 10 L 14 6 C 14 4.6 13.999219 3.9003906 13.699219 3.4003906 C 13.499219 2.9003906 13.099609 2.5007813 12.599609 2.3007812 C 12.099609 2.0007812 11.4 2 10 2 L 6 2 z M 6.9003906 7.4003906 C 7.3670573 7.4003906 7.5996094 7.7007813 7.5996094 8.3007812 L 7.5996094 10.699219 C 7.5996094 11.299219 7.5007812 11.766276 7.3007812 12.099609 C 7.1007812 12.432943 6.8333333 12.700391 6.5 12.900391 C 6.1666667 13.033724 5.8003906 13.099609 5.4003906 13.099609 C 5.0003906 13.099609 4.6341146 13.033724 4.3007812 12.900391 C 3.9674479 12.767057 3.7 12.567448 3.5 12.300781 C 3.3 12.034115 3.1992188 11.665885 3.1992188 11.199219 C 3.1992188 10.999219 3.2670573 10.867448 3.4003906 10.800781 C 3.533724 10.667448 3.7003906 10.599609 3.9003906 10.599609 C 4.1003906 10.599609 4.2670573 10.667448 4.4003906 10.800781 C 4.533724 10.934115 4.6325521 11.133724 4.6992188 11.400391 C 4.6992188 11.533724 4.7341146 11.667448 4.8007812 11.800781 L 5 12 L 5.4003906 12 C 5.533724 12 5.6674479 11.967057 5.8007812 11.900391 C 5.9341146 11.833724 6.0329427 11.7 6.0996094 11.5 C 6.166276 11.233333 6.1992187 10.932943 6.1992188 10.599609 L 6.1992188 8.3007812 C 6.1992188 7.7007812 6.433724 7.4003906 6.9003906 7.4003906 z M 11.300781 7.4003906 C 11.634115 7.4003906 11.967448 7.4333333 12.300781 7.5 C 12.567448 7.5666667 12.832943 7.7003906 13.099609 7.9003906 L 13.400391 8.1992188 C 13.467057 8.3325521 13.5 8.466276 13.5 8.5996094 C 13.5 8.7329427 13.434115 8.8666667 13.300781 9 C 13.167448 9.0666667 13.033724 9.0996094 12.900391 9.0996094 C 12.700391 9.0996094 12.533724 9.0666667 12.400391 9 C 12.333724 8.9333333 12.232943 8.8674479 12.099609 8.8007812 C 12.032943 8.6674479 11.934115 8.5666667 11.800781 8.5 C 11.667448 8.4333333 11.500781 8.4003906 11.300781 8.4003906 C 11.100781 8.4003906 10.934115 8.4333333 10.800781 8.5 C 10.734115 8.5 10.666276 8.5658854 10.599609 8.6992188 C 10.532943 8.7658854 10.5 8.833724 10.5 8.9003906 C 10.5 9.033724 10.565885 9.1674479 10.699219 9.3007812 C 10.899219 9.4341146 11.199609 9.5329427 11.599609 9.5996094 C 11.999609 9.7329427 12.365885 9.8666667 12.699219 10 C 12.965885 10.133333 13.200391 10.3 13.400391 10.5 C 13.600391 10.766667 13.699219 11.067057 13.699219 11.400391 C 13.699219 11.733724 13.600391 12.034115 13.400391 12.300781 C 13.133724 12.567448 12.833333 12.767057 12.5 12.900391 C 12.166667 13.033724 11.732552 13.099609 11.199219 13.099609 C 10.799219 13.099609 10.432943 13.033724 10.099609 12.900391 C 9.766276 12.833724 9.5007812 12.7 9.3007812 12.5 C 9.0341146 12.3 8.9003906 12.067448 8.9003906 11.800781 C 8.9003906 11.667448 8.9333333 11.533724 9 11.400391 C 9.0666667 11.267057 9.2003906 11.199219 9.4003906 11.199219 C 9.6003906 11.199219 9.7670573 11.234115 9.9003906 11.300781 C 10.033724 11.367448 10.132552 11.466276 10.199219 11.599609 C 10.332552 11.732943 10.499219 11.833724 10.699219 11.900391 C 10.832552 11.967057 11.034115 12 11.300781 12 L 11.699219 12 C 11.832552 11.933333 11.933333 11.867448 12 11.800781 C 12.133333 11.667448 12.199219 11.566667 12.199219 11.5 C 12.199219 11.3 12.100391 11.133333 11.900391 11 C 11.700391 10.933333 11.4 10.867448 11 10.800781 C 10.266667 10.600781 9.733724 10.366276 9.4003906 10.099609 C 9.133724 9.766276 9 9.3670573 9 8.9003906 C 9 8.633724 9.1007812 8.366276 9.3007812 8.0996094 C 9.5007812 7.8996094 9.766276 7.7329427 10.099609 7.5996094 C 10.499609 7.466276 10.900781 7.4003906 11.300781 7.4003906 z " />
  </g>
</svg>

<svg xmlns="http://www.w3.org/2000/svg" width="16" height="16" version="1.2"><path d="M6 2c-1.4 0-2.1 0-2.6.3-.5.2-.9.6-1.1 1.1C2 3.9 2 4.6 2 6v4c0 1.4 0 2.1.3 2.6.2.5.6.9 1.1 1.1.5.3 1.2.3 2.6.3h4c1.4 0 2.1 0 2.6-.3.5-.2.9-.6 1.1-1.1.3-.5.3-1.2.3-2.6V6c0-1.4 0-2.1-.3-2.6-.2-.5-.6-.9-1.1-1.1C12.1 2 11.4 2 10 2zm.9 5.4q.7 0 .7.9v2.4q0 .9-.3 1.4t-.8.8q-.5.2-1.1.2t-1.1-.2a1.8 1.8 0 0 1-.8-.6q-.3-.4-.3-1.1 0-.3.2-.4a.68.68 0 0 1 .5-.2q.3 0 .5.2.2.201.3.6 0 .2.1.4l.2.2h.4a.9.9 0 0 0 .4-.1q.2-.1.3-.4.1-.4.1-.9V8.3q0-.9.7-.9m4.4 0q.5 0 1 .1.4.1.8.4l.3.3q.1.2.1.4t-.2.4a.9.9 0 0 1-.4.1q-.3 0-.5-.1a1.2 1.2 0 0 0-.3-.2.65.65 0 0 0-.3-.3q-.2-.1-.5-.1t-.5.1q-.1 0-.2.2-.1.1-.1.2 0 .2.2.4.3.2.9.3.6.2 1.1.4.4.2.7.5.3.4.3.9 0 .501-.3.9a2.7 2.7 0 0 1-.9.6q-.5.2-1.3.2-.6 0-1.1-.2-.5-.1-.8-.4-.4-.3-.4-.7 0-.2.1-.4t.4-.2.5.1a.65.65 0 0 1 .3.3q.2.2.5.3.2.1.6.1h.4a1.2 1.2 0 0 0 .3-.2q.2-.2.2-.3 0-.3-.3-.5-.3-.1-.9-.2-1.1-.3-1.6-.7Q9 9.6 9 8.9q0-.4.3-.8.3-.3.8-.5.6-.2 1.2-.2" style="fill:#f5aa52"/></svg>
